X:21144 
T:NEW CENTURY (hornpipe), The 
B:DMI.0939
Z:Nordberg/Black
R:hornpipe
%Q:1/4=150
M:C|
L:1/8
K:G
Bc|dBGA GBdB|cAFE FG Ac|BAGF GBdf|gbaf gage|
dgdB G2AB|cfcA F2GA|BGgd ecdF|AGGF G2:|
GA|Bcde fdcA|dDEF GFGA|Bcde fdge|afdc d2df|
gdBG ecAF|GFGA BGEF|GDBG cedF|AGGF G2:|

%%%

